img/n/nordea.svg

<svg xmlns="http://www.w3.org/2000/svg" viewBox="0 0 128 28"><path d="M116.79 56.32a10.52 10.52 0 0 0 .75 21 7.76 7.76 0 0 0 6.46-3.38V77h4V67a10.27 10.27 0 0 0-11.21-10.68Zm6.87 10.74a6 6 0 0 1-6.78 5.65 6.17 6.17 0 0 1-5.27-5.27 6.05 6.05 0 1 1 12-1Zm-29.1-10.74a10.55 10.55 0 1 0 10.08 14.6l-4-1.22a6.41 6.41 0 0 1-4.52 3.48 6.32 6.32 0 0 1-6.5-3.11l15.73-4.33a10.57 10.57 0 0 0-10.79-9.42Zm-5.84 10a6.2 6.2 0 0 1 4.14-5.75 5.76 5.76 0 0 1 7.26 2.64ZM60 60.56v-4.33c-4 0-5.27 2-5.93 3v-2.34h-4.53V77h4.62v-9.94c0-4.52 2.63-6.31 5.84-6.5Zm-41.54 8.38L4.71 52.75H0V77h4.9V60.75L18.84 77h4.23V52.75h-4.61Zm63.1-18.36h-4.33v7.91c-1-1.32-4.24-2.45-7-2.17a10.61 10.61 0 0 0-9.7 9.8A10.5 10.5 0 0 0 71 77.33c2.26 0 5.37-1 6.41-3V77h4V66.59ZM77 67.06a6 6 0 0 1-6.78 5.65A6.17 6.17 0 0 1 65 67.44a6.05 6.05 0 1 1 12-1.04ZM36.35 56.23A10.55 10.55 0 1 0 46.9 66.78a10.65 10.65 0 0 0-10.55-10.55Zm0 16.58a6 6 0 1 1 6-6 6 6 0 0 1-6 6Z" transform="translate(0 -50)" style="fill:#0000a0"/></svg>

<svg xmlns="http://www.w3.org/2000/svg" viewBox="0 0 128 28"><path d="M116.79,56.32a10.52,10.52,0,0,0,.75,21A7.76,7.76,0,0,0,124,73.94V77h4v-10A10.27,10.27,0,0,0,116.79,56.32Zm6.87,10.74a6,6,0,0,1-6.78,5.65,6.17,6.17,0,0,1-5.27-5.27,6.05,6.05,0,1,1,12-1ZM94.56,56.32a10.55,10.55,0,1,0,10.08,14.6l-4-1.22a6.41,6.41,0,0,1-4.52,3.48,6.32,6.32,0,0,1-6.5-3.11l15.73-4.33A10.57,10.57,0,0,0,94.56,56.32Zm-5.84,10a6.2,6.2,0,0,1,4.14-5.75,5.76,5.76,0,0,1,7.26,2.64ZM60,60.56V56.23c-4,0-5.27,2-5.93,3V56.89H49.54V77h4.62V67.06C54.16,62.54,56.79,60.75,60,60.56ZM18.46,68.94,4.71,52.75H0V77H4.9V60.75L18.84,77h4.23V52.75H18.46Zm63.1-18.36H77.23v7.91c-1-1.32-4.24-2.45-7-2.17a10.61,10.61,0,0,0-9.7,9.8A10.5,10.5,0,0,0,71,77.33c2.26,0,5.37-1,6.41-3V77h4V66.59ZM77,67.06a6,6,0,0,1-6.78,5.65A6.17,6.17,0,0,1,65,67.44,6.05,6.05,0,1,1,77,66.4ZM36.35,56.23A10.55,10.55,0,1,0,46.9,66.78,10.65,10.65,0,0,0,36.35,56.23Zm0,16.58a6,6,0,1,1,6-6,6,6,0,0,1-6,6Z" transform="translate(0 -50)" style="fill:#0000a0"/></svg>
